X:155
U: ~ = !turn!
%%topmargin 3cm
T:Paddy Cronin Reel #2
B:Traditional Irish Fiddle Tunes. Randy Miller and Jack Perron.
Z:Transcribed by Ralph Palmer
S:Paddy Cronin
R:Reel
L:1/8
M:C|
K:G
dc | BG {/A}G2 {/A}GFDE | =F2 cF CFAc | BG ((3AGF) DE{/G}=FE | =FAdc BG{/A}GA :|
Pgfgd Bcde | P=fefc ABcd | Pgfgd Bcdc | dgga ((3bag) ((3agf) |
gbgd Bcde | ((3.=f.f.e) fc ABc2 "(A"| dc c2 dE=FE "A)"| =FAdc BG G2 |]
xxxx xxxx "(A" || dcBA DE=FD "A)" || xxxx xxxx [|]
